X:2
T:The More I See You
C:Harry Warren
L:1/4
M:C
I:linebreak $
K:D treble
"A7" z A, D C |"D" D2 A,2 |"F#m" z D A ^G |"Em" A2 E2 |"A7" z A, D C |"D" D2 A,2 Ox/||$
"F#m" z D A ^G |"Em" A4 |"A7" z A A A ||[K:Bb]"Dm" A2"Db7" A A |"Cm" A c"B7" A G |$"Bb" F2 F2 |
"A+" z A F =E |"Dm" D2 D2 ||[K:D]"E7" z F D B, |"Em" "_D.C. al Coda" E4 ||$Ox/"F#m" z D B A |"Am" B4 |
"D7" z A G F |"G" d3/2 B/ A G |"Gm" _B G D E |$"F#m" A2 A,2 |"F7" z A, D E |"Em" F2 A,2 |
"Eb7" z F D E |"D" D4 |]

